Simply-Purple-Circles/scalable/devices/network-card.svg

<svg xmlns="http://www.w3.org/2000/svg" width="48" height="48" viewBox="0 0 12.7 12.7"><path d="M6.34.07a6.29 6.29 0 0 0-6.29 6.3 6.29 6.29 0 0 0 6.3 6.28 6.29 6.29 0 0 0 6.28-6.29A6.29 6.29 0 0 0 6.34.07zm-.01.94a5.4 5.4 0 0 1 5.4 5.4 5.4 5.4 0 0 1-5.4 5.41 5.4 5.4 0 0 1-5.41-5.4A5.4 5.4 0 0 1 6.32 1zm.95 1.65a.13.13 0 0 0-.13.13v7.07c0 .08.06.14.14.14h.41c.08 0 .14-.06.14-.14V8.58l.04.01H8.9c.09 0 .17-.08.17-.17V7.15c0-.1-.08-.17-.17-.17H7.84v-1.3l.04.02H8.9c.09 0 .17-.08.17-.18V4.25c0-.1-.08-.17-.17-.17H7.88l-.04.01v-.76h1.7c.07 0 .13-.06.13-.14v-.4a.13.13 0 0 0-.13-.13H7.29zm-2.9 1.86A.39.39 0 0 0 4 4.9V5a.18.18 0 0 1-.18.18h-.53c-.21 0-.39.24-.39.45V7.8c0 .2.18.38.39.38h2.9a.39.39 0 0 0 .38-.38V5.63c0-.21-.17-.45-.38-.45h-.53A.19.19 0 0 1 5.48 5V4.9a.39.39 0 0 0-.4-.38h-.7zm3.5.04h.73c.04 0 .07.03.07.07v.51c0 .04-.03.07-.07.07h-.73a.07.07 0 0 1-.06-.07v-.5c0-.05.03-.08.06-.08zM3.36 6.68h.58v.98h-.58v-.98zm.7 0h.59v.98h-.59v-.98zm.7 0h.59v.98h-.59v-.98zm.7 0h.59v.98h-.59v-.98zm2.42.78h.73c.04 0 .07.03.07.07v.5c0 .05-.03.08-.07.08h-.73a.07.07 0 0 1-.06-.07v-.51c0-.04.03-.07.06-.07z" fill="#963996"/></svg>

<?xml version="1.0" encoding="UTF-8" standalone="no"?>
<svg
   xmlns:dc="http://purl.org/dc/elements/1.1/"
   xmlns:cc="http://creativecommons.org/ns#"
   xmlns:rdf="http://www.w3.org/1999/02/22-rdf-syntax-ns#"
   xmlns:svg="http://www.w3.org/2000/svg"
   xmlns="http://www.w3.org/2000/svg"
   xmlns:sodipodi="http://sodipodi.sourceforge.net/DTD/sodipodi-0.dtd"
   xmlns:inkscape="http://www.inkscape.org/namespaces/inkscape"
   width="48"
   height="48"
   viewBox="0 0 12.7 12.7"
   version="1.1"
   id="svg4"
   sodipodi:docname="network-card.svg"
   inkscape:version="0.92.4 (5da689c313, 2019-01-14)">
  <metadata
     id="metadata10">
    <rdf:RDF>
      <cc:Work
         rdf:about="">
        <dc:format>image/svg+xml</dc:format>
        <dc:type
           rdf:resource="http://purl.org/dc/dcmitype/StillImage" />
        <dc:title></dc:title>
      </cc:Work>
    </rdf:RDF>
  </metadata>
  <defs
     id="defs8" />
  <sodipodi:namedview
     pagecolor="#ffffff"
     bordercolor="#666666"
     borderopacity="1"
     objecttolerance="10"
     gridtolerance="10"
     guidetolerance="10"
     inkscape:pageopacity="0"
     inkscape:pageshadow="2"
     inkscape:window-width="1087"
     inkscape:window-height="480"
     id="namedview6"
     showgrid="false"
     inkscape:zoom="4.9166667"
     inkscape:cx="2.1355932"
     inkscape:cy="24"
     inkscape:window-x="0"
     inkscape:window-y="25"
     inkscape:window-maximized="0"
     inkscape:current-layer="svg4" />
  <path
     d="M 6.34,0.07 A 6.29,6.29 0 0 0 0.05,6.37 6.29,6.29 0 0 0 6.35,12.65 6.29,6.29 0 0 0 12.63,6.36 6.29,6.29 0 0 0 6.34,0.07 Z M 6.33,1.01 a 5.4,5.4 0 0 1 5.4,5.4 5.4,5.4 0 0 1 -5.4,5.41 A 5.4,5.4 0 0 1 0.92,6.42 5.4,5.4 0 0 1 6.32,1 Z M 7.28,2.66 A 0.13,0.13 0 0 0 7.15,2.79 V 9.86 C 7.15,9.94 7.21,10 7.29,10 H 7.7 C 7.78,10 7.84,9.94 7.84,9.86 V 8.58 L 7.88,8.59 H 8.9 c 0.09,0 0.17,-0.08 0.17,-0.17 V 7.15 C 9.07,7.05 8.99,6.98 8.9,6.98 H 7.84 V 5.68 L 7.88,5.7 H 8.9 C 8.99,5.7 9.07,5.62 9.07,5.52 V 4.25 C 9.07,4.15 8.99,4.08 8.9,4.08 H 7.88 L 7.84,4.09 V 3.33 h 1.7 c 0.07,0 0.13,-0.06 0.13,-0.14 V 2.79 A 0.13,0.13 0 0 0 9.54,2.66 H 7.29 Z M 4.38,4.52 A 0.39,0.39 0 0 0 4,4.9 V 5 A 0.18,0.18 0 0 1 3.82,5.18 H 3.29 C 3.08,5.18 2.9,5.42 2.9,5.63 V 7.8 c 0,0.2 0.18,0.38 0.39,0.38 h 2.9 A 0.39,0.39 0 0 0 6.57,7.8 V 5.63 C 6.57,5.42 6.4,5.18 6.19,5.18 H 5.66 A 0.19,0.19 0 0 1 5.48,5 V 4.9 A 0.39,0.39 0 0 0 5.08,4.52 Z m 3.5,0.04 h 0.73 c 0.04,0 0.07,0.03 0.07,0.07 v 0.51 c 0,0.04 -0.03,0.07 -0.07,0.07 H 7.88 A 0.07,0.07 0 0 1 7.82,5.14 V 4.64 C 7.82,4.59 7.85,4.56 7.88,4.56 Z M 3.36,6.68 H 3.94 V 7.66 H 3.36 Z m 0.7,0 H 4.65 V 7.66 H 4.06 Z m 0.7,0 H 5.35 V 7.66 H 4.76 Z m 0.7,0 H 6.05 V 7.66 H 5.46 Z m 2.42,0.78 h 0.73 c 0.04,0 0.07,0.03 0.07,0.07 v 0.5 c 0,0.05 -0.03,0.08 -0.07,0.08 H 7.88 A 0.07,0.07 0 0 1 7.82,8.04 V 7.53 c 0,-0.04 0.03,-0.07 0.06,-0.07 z"
     id="path2"
     inkscape:connector-curvature="0"
     style="fill:#963996" />
</svg>
